X:1
T:First Grief
T:First Grief
T:Album for the Young
T:Schumann, Op. 68, No. 16
C:Schumann, Op. 68, No. 16
%%score { ( 1 3 ) | ( 2 4 ) }
L:1/8
Q:1/4=92
M:2/4
K:G
V:1 treble nm="Piano" snm="Pno."
V:3 treble 
V:2 bass 
V:4 bass 
V:1
"^Nicht schnell" (!5!g | fe^de | B3) (!4!e | !2!c3) (e | !1!B3) (!2!B | c)(!4!cBA | G)(!3!GFE) | %7
 (!2!^D3 !1!E | [^DF]3) (g | fe^de | B3) (e | c3) (e | B3) (B | c)(cBA | G)(GFE) | (!2!^D3 F | %16
 E2) z |: (!5!e |"_cresc." =dcBc | !1!A!2!!4![=FB][Ec]) (!5!e |"^Etwas langsamer" dcB!>(!c | %21
 !1!E!2!!3![^D^F])!1!!4![EG]!>)!"^Im Tempo" z | x4 | x4 | x4 |!>(! z2 z (!5!g!>)! | !4!fe^de | %27
 B3) (e | c3) (e | B3)!f! !wedge!!1!E |!f! !>![E=d]!>![Ec] z !wedge!!2!E | %31
!f! !>!!1!!5![^Dc]!>!!1!!4![EB]!>(!(.!1!!4!!5![CFA].!2!!3!!5![^CEG]) | [B,EG]2 [A,B,^DF]2!>)! | %33
 [G,B,E]2 z :| %34
V:2
 z | z4 |[K:treble] z!p! !2!G- [EG]2 | z !1!A- [EA]2 | z G- [EG]2 | z (!2!F^DF) | %6
[K:bass] z (!1!E!4!A,^A,) | z (!2!^A, B,2-) | B,(B,B,,) z | z4 |[K:treble] z!p! G- [EG]2 | %11
 z A- [EA]2 | z G- [EG]2 | z (F^DF) |[K:bass] z (EA,^A,) | z !2!^A,B,=A, | %16
 !5!!3![E,G,] (!1!E,E,,) |: z | z2 z (!2!E | =FDC) z | z2 z (!2!A, | CA,E,)[K:treble] (!1!G | %22
 F!1!E!3!^D!2!E | !5!B,3) (G | FE^DE | =DCB,!3!^D) | G4 | z G- [EG]2 | z A- [EA]2 | z G- [EG]2 | %30
[K:bass] !>!!4!!2![^G,B,]!>![A,C] z !wedge!!5!E, | !>![F,A,]!>![=G,B,](.A,,.^A,,) | B,,2 B,,2- | %33
 B,, E,E,, :| %34
V:3
 x | x4 | x4 | x4 | x4 | x4 | x4 | x4 | x4 | x4 | x4 | x4 | x4 | x4 | x4 | x4 | x3 |: x | x4 | x4 | %20
 x4 | x4 | z2 z (!5!g | fe^d!3!e | =dc!3!Bc | BAG[I:staff +1]!1!A) | x4 | x4 | x4 | x4 | x4 | x4 | %32
 x4 | x3 :| %34
V:4
 x | x4 |[K:treble] x4 | x4 | x4 | x4 |[K:bass] x4 | x4 | x4 | x4 |[K:treble] x4 | x4 | x4 | x4 | %14
[K:bass] x4 | x4 | x3 |: x | x4 | x4 | x4 | x3[K:treble] x | C4 | B,4 | A,4- | A,2 !45!B,2 | %26
 !2!E4 | x4 | x4 | x4 |[K:bass] x4 | x4 | x4 | x3 :| %34

